X: 28806
T: My Mind Will Never Be Easy
R: slip jig
M: 9/8
K: Eminor
|:edB BAB G2A|B2d deB dgf|edB BAB G2A|B2e efd e3:|
|:def g3 fed|B2d deB d2B|deg age dBA|B2e efd e3:|

